X:1
T:Dichterliebe, Op.48
T:Das ist ein Flöten und Geigen
T:9. Das ist ein Flöten und Geigen
T:Robert Schumann
T:Dichterliebe, Op.48
T:Heinrich Heine
T:OpenScore (CC0)
T:OpenScore (CC0)
T:OpenScore (CC0)
C:Robert Schumann
Z:Heinrich Heine
Z:OpenScore (CC0)
%%score 1 { 2 | ( 3 4 ) }
L:1/8
Q:1/4=80
M:3/8
K:F
V:1 treble nm="Voice"
V:2 treble nm="Piano"
V:3 bass 
V:4 bass 
V:1
"^Nicht zu rasch." z | z3 | z3 | z3 | z z!mf! A | A2 A | d3/2 d/ d | !>!f3 | e2!f! A | d2 d | %10
w: ||||Das|ist ein|Flö- ten und|Gei-|gen, Trom-|pe- ten|
 d3/2 d/ d | c3- | c z c | B2 B | B3/2 B/ B | C3 | z3 | z3 | z3 | z3 | z z!p! D | D3/2 D/ D | %22
w: schmet- tern dar-|ein,|_ Trom-|pe- ten|schmet- tern dar-|ein;|||||da|tanzt wohl  im|
 G2 G | !>!B3 | A2 A | B3/2 B/ B | c2 c | A3 |[K:F]"^*" z z A | G3/2 G/ G | G2 G | F3 | z3 | z3 | %34
w: Hoch- zeit-|rei-|gen die|Herz- al- ler-|lieb- ste|mein,|die|Herz- al- ler-|lieb- ste|mein.|||
 z3 | z3 | z3 | z3 | z z!p! A | A2 A | d3/2 d/ d | !>!f3 | e2!f! A | d2 d | d3/2 d/ d | c3 | c2 c | %47
w: ||||Das|ist ein|Klin- gen und|Dröh-|nen das|ist ein|Klin- gen und|Dröh-|nen, ein|
 B3/2 B/ B | B2 B | C3 | z3 | z3 | z3 | z3 | z z!p! D | D2 D | G3/2 G/ G | !>!B3 | A2 A | B2 B | %60
w: Pau- ken und|ein Schal-|mei'n;|||||da-|zwi- schen|schluch- zen und|stöh-|nen, da-|zwi- schen|
 B3/2 B/ B | A3 | A z A | G3/2 G/ G | G2 G | F3 | z3 | z3 | z3 | z3 | z3 | z3 | z3 | z3 | z3 | z3 | %76
w: schluch- zen und|stöh-|nen die|lieb- li- chen|En- ge-|lein.|||||||||||
 z3 | z3 | z3 | z3 | z3 | z3 | z3 | z3 | !fermata!z2 |] %85
w: |||||||||
V:2
!p! (G/A/ | B/A/G/e/d/^c/ | d/a/g/f/e/f/ | e/d/^c/d/e/f/ | e/^c/A/B/G/A/) | (B/A/G/e/d/^c/ | %6
 d/a/g/f/e/f/ | e/d/^c/d/e/f/ |!<(! e/^c/A/c/d/e/)!<)! |!f! f/e/d/a/g/f/ | e/f/e/d/c/d/ | %11
 c/B/A/B/A/G/ | F/G/F/E/D/E/ | D/C/B,/C/B,/A,/ |[K:bass] G,/A,/G,/F,/E,/F,/ | E,/G,/B,/C/E/G/ | %16
[K:treble]!>(! A/F/C/ z/ (C/D/!>)! |!p! _E/D/C/A/G/^F/ | G/d/c/B/A/B/ | A/G/^F/G/A/B/ | %20
 A/^F/D/_E/C/D/) | _E/D/C/A/G/^F/ | G/d/c/B/A/B/ | A/G/^F/G/A/B/ |!<(! A/^F/D/ z/ g/a/!<)! | %25
!f! b/a/g/d'/c'/b/ | a/b/a/g/f/g/ | f/_e/d/e/d/c/ |[K:F] B/c/B/A/G/A/ | G/F/_E/F/E/D/ | %30
 C/D/C/B,/A,/D/ | A,/C/_E/F/A/c/ | !>!d/B/F/D/B,/F,/ | ^G,/=B,/=E/^G/=B/e/ | %34
 !>!^c/A/E/^C/!p! (=G/A/ | B/A/G/e/d/^c/ | d/a/g/f/e/f/ | e/d/^c/d/e/f/ | e/^c/A/B/G/A/) | %39
 B/A/G/e/d/^c/ | d/a/g/f/e/f/ | e/d/^c/d/e/f/ |!<(! e/^c/A/c/d/e/!<)! |!f! f/e/d/a/g/f/ | %44
 e/f/e/d/c/d/ | c/B/A/B/A/G/ | F/G/F/E/D/E/ | D/C/B,/C/B,/A,/ |[K:bass] G,/A,/G,/F,/E,/F,/ | %49
 E,/G,/B,/C/E/G/ |[K:treble]!>(! A/F/C/ z/ (C/D/!>)! |!p! _E/D/C/A/G/^F/ | G/d/c/B/A/B/ | %53
 A/G/^F/G/A/B/ | A/^F/D/_E/C/D/) | _E/D/C/A/G/^F/ | G/d/c/B/A/B/ | A/G/^F/G/A/B/ | %58
!<(! A/^F/D/ z/ g/a/!<)! |!f! b/a/g/d'/c'/b/ | a/b/a/g/f/g/ | f/_e/d/e/d/c/ | B/c/B/A/G/A/ | %63
 G/F/_E/F/E/D/ | C/D/C/B,/A,/D/ | A,/C/_E/F/A/c/ | !>!d/B/F/D/B,/F,/ | ^G,/=B,/=E/^G/=B/e/ | %68
 ^c/A/E/^C/!p! (=G/A/ | B/A/G/e/d/^c/ | d/a/g/f/e/f/ | e/d/^c/d/e/f/ | e/^c/A/B/)(!>!=c/d/ | %73
 _e/d/c/a/g/^f/ | g/d'/c'/b/a/b/ | a/g/^f/g/a/b/ | a/^f/d/f/^c/e/) |!>(! (a/^f/d/f/^c/e/) | %78
 (a/^f/d/f/^c/e/) | (a/^f/d/f/^c/e/)!>)! | (a/^f/d/f/^c/f/ | =c/^f/=B/f/"_dim."_B/f/ | %82
 A/^f/_A/f/G/f/ | ^F/^f/^E/f/=E/f/ |!pp!{/!fermata!D} !fermata![D^F]2) |] %85
V:3
 z |!ped! A,,!ped-up! [G,B,^CE]/[G,B,CE]/[G,B,CE] | A,, [A,DF]/[A,DF]/[A,DF] | %3
 A,, [^G,=B,F]/[G,B,F]/[G,B,F] | A,, [A,^CE]/[A,CE]/[A,CE] | A,, [G,B,^CE]/[G,B,CE]/[G,B,CE] | %6
 A,, [A,DF]/[A,DF]/[A,DF] | A,, [^G,=B,F]/[G,B,F]/[G,B,F] | A,, [A,^CE]/[A,CE]/[A,CE] | %9
 D,, [F,A,D]/[F,A,D]/[F,A,D] | G,, [F,B,D]/[F,B,D]/[F,B,D] | C, [E,B,C]/[E,B,C]/[E,B,C] | %12
 F,, [E,A,C]/[E,A,C]/[E,A,C] | B,, (D^F) | G,, [B,G]/[B,G]/[B,G] | C,, [C,E,]/[C,E,]/[C,E,] | %16
 F,, z/ A,/F,/C,/ | D,, [^F,A,]/[F,A,]/[F,A,] | D,, [G,B,]/[G,B,]/[G,B,] | %19
 D,, [B,^C=E]/[B,CE]/[B,CE] | D,, [^F,A,]/[F,A,]/[F,A,] | D,, [^F,A,]/[F,A,]/[F,A,] | %22
 D,, [G,B,]/[G,B,]/[G,B,] | D,, [B,^C=E]/[B,CE]/[B,CE] | D,, z/ A,/^F,/D,/ | %25
 !>![G,,,G,,] [B,DG]/[B,DG]/[B,DG] | !>![C,,C,] [B,_EG]/[B,EG]/[B,EG] | %27
 !>![F,,F,] [A,_EF]/[A,EF]/[A,EF] |[K:F] !>![B,,,B,,] [A,DF]/[A,DF]/[A,DF] | %29
 !>![_E,,_E,][K:treble] (G=B) |[K:bass] !>!C,[K:] [_Ge]/[Ge]/[Ge] | %31
[K:bass] !>!F,, [F,C]/[F,C]/[F,C] | !>!B,,F,/F,/ F,/ z/ | !>!=E,, [=E,=B,]/[E,B,]/ [E,B,] | %34
 !>!A,, z B,/E,/ | A,, [G,B,^CE]/[G,B,CE]/[G,B,CE] | A,, [A,DF]/[A,DF]/[A,DF] | %37
 A,, [^G,=B,F]/[G,B,F]/[G,B,F] | A,, [A,^CE]/[A,CE]/[A,CE] | A,, [G,B,^CE]/[G,B,CE]/[G,B,CE] | %40
 A,, [A,DF]/[A,DF]/[A,DF] | A,, [^G,=B,F]/[G,B,F]/[G,B,F] | A,, [A,^CE]/[A,CE]/[A,CE] | %43
 D,, [F,A,D]/[F,A,D]/[F,A,D] | G,, [F,B,D]/[F,B,D]/[F,B,D] | C, [E,B,C]/[E,B,C]/[E,B,C] | %46
 F,, [E,A,C]/[E,A,C]/[E,A,C] | B,, (D^F) | G,, [B,G]/[B,G]/[B,G] | %49
"_*""_[IMSLP edition #51736 has an incorrect key signature for the first page (p.15) of this score and \nchanges at measure 28 (the second page, p.16) without prior warning from two flats to one flat.\nThis file restores the correct key signature of one flat throughout.]" C,, [C,E,]/[C,E,]/[C,E,] | %50
 F,, z/ A,/F,/C,/ | D,, [^F,A,]/[F,A,]/[F,A,] | D,, [G,B,]/[G,B,]/[G,B,] | %53
 D,, [B,^C=E]/[B,CE]/[B,CE] | D,, [^F,A,]/[F,A,]/[F,A,] | D,, [^F,A,]/[F,A,]/[F,A,] | %56
 D,, [G,B,]/[G,B,]/[G,B,] | D,, [B,^C=E]/[B,CE]/[B,CE] | D,, z/ A,/^F,/D,/ | %59
 !>![G,,,G,,] [B,DG]/[B,DG]/[B,DG] | !>![C,,C,] [B,_EG]/[B,EG]/[B,EG] | %61
 !>![F,,F,] [A,_EF]/[A,EF]/[A,EF] | !>![B,,,B,,] [A,DF]/[A,DF]/[A,DF] | %63
 !>![_E,,_E,][K:treble] (G=B) |[K:bass] !>!C,[K:] [_Ge]/[Ge]/[Ge] | %65
[K:bass] !>!F,, [F,C]/[F,C]/[F,C] | !>!B,,F,/F,/ F,/ z/ | !>!=E,, [=E,=B,]/[E,B,]/ [E,B,] | %68
 !>!A,, z B,/E,/ | A,, [G,B,^CE]/[G,B,CE]/[G,B,CE] | A,, [A,DF]/[A,DF]/[A,DF] | %71
 A,, [^G,=B,F]/[G,B,F]/[G,B,F] | A,, [A,^CE]/[A,CE]/!>![A,=C_E^F] | %73
 !>!D, [A,C_E^F]/[A,CEF]/[A,CEF] | D, [B,DG]/[B,DG]/[B,DG] | D,[K:treble] [D=EG^c]/[DEGc]/[DEGc] | %76
[K:bass] D,[K:treble] [D^FA]/[DFA]/[DGB] |[K:bass] D,[K:treble] [D^FA]/[DFA]/[DGB] | %78
[K:bass] D,[K:treble] [D^FA]/[DFA]/[DGB] |[K:bass] D,[K:treble] [D^FA]/[DFA]/[DGB] | %80
[K:bass] D, !>!^F2- | F3- | F3 | .^F,.^E,.=E, | !fermata![D,A,]2 |] %85
V:4
 x | x3 | x3 | x3 | x3 | x3 | x3 | x3 | x3 | x3 | x3 | x3 | x3 | x3 | x3 | x3 | x3 | x3 | x3 | x3 | %20
 x3 | x3 | x3 | x3 | x3 | x3 | x3 | x3 |[K:F] x3 | x[K:treble] x2 |[K:bass] x[K:] x2 |[K:bass] x3 | %32
 x3 | x3 | x3 | x3 | x3 | x3 | x3 | x3 | x3 | x3 | x3 | x3 | x3 | x3 | x3 | x3 | x3 | x3 | x3 | %51
 x3 | x3 | x3 | x3 | x3 | x3 | x3 | x3 | x3 | x3 | x3 | x3 | x[K:treble] x2 |[K:bass] x[K:] x2 | %65
[K:bass] x3 | x3 | x3 | x3 | x3 | x3 | x3 | x3 | x3 | x3 | x[K:treble] x2 | %76
[K:bass] x[K:treble] x2 |[K:bass] x[K:treble] x2 |[K:bass] x[K:treble] x2 | %79
[K:bass] x[K:treble] x2 |[K:bass] x .D.^C | .=C.=B,._B, | .A,._A,.G, | x3 | x2 |] %85

